tools/download-figma-icons/icons/solid/meravis.svg

<svg width="24" height="24" viewBox="0 0 24 24" fill="none" xmlns="http://www.w3.org/2000/svg">
<path fill-rule="evenodd" clip-rule="evenodd" d="M17.1571 9.63759H13.4746C13.0546 9.63759 12.7246 9.30009 12.7246 8.8876C12.7246 8.46685 13.0546 8.1376 13.4746 8.1376H17.1571C17.5778 8.1376 17.9071 8.46685 17.9071 8.8876C17.9071 9.30009 17.5778 9.63759 17.1571 9.63759ZM17.1571 12.5851H13.4746C13.0546 12.5851 12.7246 12.2468 12.7246 11.8351C12.7246 11.4226 13.0546 11.0851 13.4746 11.0851H17.1571C17.5778 11.0851 17.9071 11.4226 17.9071 11.8351C17.9071 12.2468 17.5778 12.5851 17.1571 12.5851ZM10.2121 9.63759H6.52218C6.11043 9.63759 5.77219 9.30009 5.77219 8.8876C5.77219 8.46685 6.11043 8.1376 6.52218 8.1376H10.2121C10.6246 8.1376 10.9621 8.46685 10.9621 8.8876C10.9621 9.30009 10.6246 9.63759 10.2121 9.63759ZM10.2121 12.5851H6.52218C6.11043 12.5851 5.77219 12.2468 5.77219 11.8351C5.77219 11.4226 6.11043 11.0851 6.52218 11.0851H10.2121C10.6246 11.0851 10.9621 11.4226 10.9621 11.8351C10.9621 12.2468 10.6246 12.5851 10.2121 12.5851ZM10.2121 15.525H6.52218C6.11043 15.525 5.77219 15.1868 5.77219 14.775C5.77219 14.3625 6.11043 14.025 6.52218 14.025H10.2121C10.6246 14.025 10.9621 14.3625 10.9621 14.775C10.9621 15.1868 10.6246 15.525 10.2121 15.525ZM23.712 8.9101L21.432 7.14012L21.3202 7.05012L12.4621 0.156936C12.1928 -0.052312 11.8096 -0.052312 11.5403 0.156936L2.40468 7.26761L2.29293 7.35761L0.29045 8.9101C-0.040297 9.16509 -0.0927965 9.63759 0.154701 9.96684C0.409698 10.2901 0.882943 10.3501 1.21219 10.0943L2.07543 9.42009V23.2492C2.07543 23.6624 2.41218 23.9992 2.82542 23.9992H5.77214V18.09C5.77214 17.6775 6.11039 17.34 6.52214 17.34H10.2121C10.6246 17.34 10.9621 17.6775 10.9621 18.09V23.9992H20.8995C21.312 23.9992 21.6495 23.6624 21.6495 23.2492V22.3777C20.7045 22.3252 19.992 21.9727 19.527 21.6652C18.927 22.1152 18.207 22.3552 17.4803 22.3552C16.7303 22.3552 15.9803 22.1077 15.3645 21.5977L13.5196 20.091C13.3621 19.9635 13.2653 19.7827 13.2496 19.5885C13.2278 19.3852 13.2871 19.1902 13.4153 19.0327L13.7371 18.6352L12.2528 17.4203C11.9296 17.1578 11.8853 16.6853 12.1471 16.371C12.4096 16.0478 12.8746 16.0028 13.1978 16.2578L14.6903 17.4803L15.432 16.5728L13.9403 15.3503C13.6246 15.0885 13.5728 14.6153 13.8346 14.3003C14.0971 13.9778 14.5703 13.9335 14.892 14.1953L16.3853 15.4103L16.707 15.0128C16.9695 14.6978 17.4428 14.6453 17.7653 14.9078L19.6028 16.4153C20.832 17.4203 21.162 19.1302 20.4802 20.496C20.7495 20.6602 21.1402 20.8327 21.6495 20.8777V9.21009L22.7902 10.0943C22.9245 10.2001 23.0895 10.2526 23.247 10.2526C23.472 10.2526 23.6977 10.1543 23.8395 9.96684C24.0945 9.63759 24.0345 9.16509 23.712 8.9101ZM18.6496 17.5778L17.3903 16.5428L17.0753 16.9253C17.0753 16.9335 17.0753 16.9335 17.0678 16.9403L17.0596 16.9478L15.3721 19.0103L15.0496 19.4078L16.3096 20.4427C17.0821 21.0727 18.2303 20.9677 18.8746 20.2178L18.9203 20.1728C19.5571 19.3853 19.4453 18.2228 18.6496 17.5778Z" fill="black"/>
</svg>

<svg xmlns="http://www.w3.org/2000/svg" width="24" height="24" fill="none" viewBox="0 0 24 24"><path fill="currentColor" fill-rule="evenodd" d="M17.157 9.638h-3.682a.747.747 0 0 1-.75-.75c0-.421.33-.75.75-.75h3.682c.42 0 .75.329.75.75 0 .412-.33.75-.75.75m0 2.947h-3.682a.75.75 0 0 1-.75-.75c0-.412.33-.75.75-.75h3.682c.42 0 .75.338.75.75s-.33.75-.75.75m-6.945-2.947h-3.69a.753.753 0 0 1-.75-.75c0-.421.338-.75.75-.75h3.69c.413 0 .75.329.75.75 0 .412-.337.75-.75.75m0 2.947h-3.69a.753.753 0 0 1-.75-.75c0-.412.338-.75.75-.75h3.69c.413 0 .75.338.75.75s-.337.75-.75.75m0 2.94h-3.69a.753.753 0 0 1-.75-.75c0-.412.338-.75.75-.75h3.69c.413 0 .75.338.75.75s-.337.75-.75.75m13.5-6.615-2.28-1.77-.112-.09L12.462.157a.755.755 0 0 0-.922 0l-9.135 7.11-.112.09L.29 8.91a.76.76 0 0 0-.135 1.057.757.757 0 0 0 1.057.127l.863-.674v13.83c0 .412.337.75.75.75h2.947v-5.91c0-.413.338-.75.75-.75h3.69c.413 0 .75.337.75.75V24H20.9c.412 0 .75-.338.75-.75v-.872a4.25 4.25 0 0 1-2.123-.713c-.6.45-1.32.69-2.047.69-.75 0-1.5-.247-2.116-.757L13.52 20.09a.72.72 0 0 1-.27-.503.74.74 0 0 1 .165-.555l.322-.398-1.484-1.215a.74.74 0 0 1-.106-1.049.75.75 0 0 1 1.05-.113l1.493 1.222.742-.907-1.492-1.223a.749.749 0 1 1 .952-1.155l1.493 1.215.322-.397a.76.76 0 0 1 1.058-.105l1.838 1.507a3.35 3.35 0 0 1 .877 4.081c.27.164.66.337 1.17.382V9.21l1.14.884a.746.746 0 0 0 1.05-.127.76.76 0 0 0-.128-1.057m-5.062 8.668-1.26-1.035-.315.382c0 .008 0 .008-.007.015l-.008.008-1.688 2.062-.322.398 1.26 1.035c.772.63 1.92.525 2.565-.225l.045-.045a1.846 1.846 0 0 0-.27-2.595" clip-rule="evenodd"/></svg>
